X: 2151
T: Irish Girl
%R: jig
B: Niel Gow & Sons "A Second Collection of Strathspey Reels, etc." v.2 p.12 #1 (top 4 staves continued from p.11)
Z: 2022 John Chambers <jc:trillian.mit.edu>
M: 6/8
L: 1/8
K: A
% - - - - - - - - - -
% Voice 1 reformatted for 2 8-bar lines.
V: 1 staves=2
F |\
TE2F A2B | c2c- Tc>BA| c2c- Tc>BA | (TBAB) cAF ||\
E>FA A>Bc | d2d def | ecA TB2A | TF3 A2 :|
|: d |\
(c/d/e).e ecA | (d/e/f).f fga | (c/d/e).e ecA | BGE TE2d ||\
(c/d/e).e ecA | (d/e/f).f fga | ecA TB2A | TF3 A2 :|
% - - - - - - - - - -
% Voice 2 preserves the staff layout in the book.
V: 2 clef=bass middle=d
z |\
a3 A3 | a3 A3  | a3 A3 | e3- e2d || c3 A3 | B3 g3  | a3  e3 | d3 c2 :||: z |
a3 A3 | d3 d'3 | a3 A3 | e3  E3  || a3 A3 | d3 d'3 | e'3 e3 | d3 c2 :|


